icons/shield-arrow-up-outline.svg

<svg xmlns="http://www.w3.org/2000/svg" width="24" height="24" viewBox="0 0 24 24">
  <path d="M12,1 C15.5169906,1 18.3742467,1.71431401 20.5547002,3.16794971 C20.8328989,3.35341548 21,3.66564681 21,4 L21,4 L21,12.9096249 C20.9981658,16.3441397 19.0497159,19.5919666 16.0272136,21.1044272 L16.0272136,21.1044272 L12.4472136,22.8944272 C12.1656861,23.0351909 11.8343139,23.0351909 11.5527864,22.8944272 L11.5527864,22.8944272 L7.97250014,21.104284 C4.95028406,19.5919666 3.00183418,16.3441397 3,12.9090909 L3,12.9090909 L3,4 C3,3.66564681 3.16710114,3.35341548 3.4452998,3.16794971 C5.62575334,1.71431401 8.48300939,1 12,1 Z M11.9999999,3 C9.15029309,3 6.85199016,3.50672557 5.09245014,4.5016552 L5.09245014,4.5016552 L4.99999986,4.555 L4.99999986,12.9085569 C5.00138724,15.5066311 6.43129904,17.976644 8.636365,19.1941391 L8.636365,19.1941391 L8.8672136,19.3155728 L11.9999999,20.881 L15.1325001,19.315716 C17.3905248,18.1858001 18.8956579,15.7647258 18.9947875,13.1773026 L18.9947875,13.1773026 L18.9999999,12.9090909 L18.9999999,4.556 L18.9075499,4.5016552 C17.2406172,3.55909028 15.0901411,3.0546919 12.4453733,3.00420832 L12.4453733,3.00420832 Z M12,8 L12.019,8.001 L12.029,8.001 L12.081,8.003 L12.1489612,8.01101934 L12.1489612,8.01101934 C12.165949,8.01362808 12.1833753,8.01670217 12.2007258,8.02024007 C12.2227461,8.0246398 12.2444365,8.02983363 12.2658396,8.03572097 C12.2814633,8.04009773 12.2968513,8.04472872 12.3121425,8.04973809 C12.3317977,8.05612249 12.3515792,8.06331574 12.3710585,8.07110396 L12.4232215,8.09367336 L12.4232215,8.09367336 C12.4438914,8.10337664 12.4642939,8.11379392 12.484277,8.12487577 C12.4963944,8.13149883 12.5086131,8.13860692 12.5207088,8.14599545 C12.546275,8.1617187 12.5711307,8.17849009 12.5951593,8.19631351 C12.6012086,8.20071786 12.6070733,8.20517454 12.6128994,8.20970461 C12.6196628,8.21507113 12.6225624,8.2173721 12.625449,8.21968877 L12.7071068,8.29289322 L15.7071068,11.2928932 C16.0976311,11.6834175 16.0976311,12.3165825 15.7071068,12.7071068 C15.3466228,13.0675907 14.7793918,13.0953203 14.3871006,12.7902954 L14.2928932,12.7071068 L13,11.415 L13,15 C13,15.5522847 12.5522847,16 12,16 C11.4871642,16 11.0644928,15.6139598 11.0067277,15.1166211 L11,15 L11,11.415 L9.70710678,12.7071068 C9.31658249,13.0976311 8.68341751,13.0976311 8.29289322,12.7071068 C7.93240926,12.3466228 7.90467972,11.7793918 8.20970461,11.3871006 L8.29289322,11.2928932 L11.2928932,8.29289322 L11.37,8.224 L11.38,8.215 L11.4046934,8.19633458 L11.4046934,8.19633458 C11.4288693,8.17849009 11.453725,8.1617187 11.4793398,8.14606743 L11.5159379,8.12467117 L11.5159379,8.12467117 C11.5357061,8.11379392 11.5561086,8.10337664 11.5769009,8.09365378 L11.628664,8.07122549 L11.628664,8.07122549 C11.6484208,8.06331574 11.6682023,8.05612249 11.6882636,8.04954668 C11.7031487,8.04472872 11.7185367,8.04009773 11.734007,8.03584514 C11.7555635,8.02983363 11.7772539,8.0246398 11.7992059,8.02016515 C11.8166247,8.01670217 11.834051,8.01362808 11.8515331,8.0110178 L11.909968,8.00399798 L11.909968,8.00399798 C11.9208131,8.00307004 11.9308872,8.00232561 11.9409686,8.0017331 L11.980824,8.00018018 L12,8 L12,8 Z"/>
</svg>

<svg xmlns="http://www.w3.org/2000/svg" viewBox="0 0 24 24">
  <path d="M12 1c3.52 0 6.37.71 8.55 2.17A1 1 0 0 1 21 4v8.91a9.23 9.23 0 0 1-4.97 8.2l-3.58 1.78a1 1 0 0 1-.9 0L7.97 21.1A9.23 9.23 0 0 1 3 12.9V4a1 1 0 0 1 .45-.83C5.63 1.7 8.48 1 12 1zm0 2c-2.85 0-5.15.5-6.9 1.5l-.1.05v8.36c0 2.6 1.43 5.07 3.64 6.28l.23.13L12 20.88l3.13-1.56A7.22 7.22 0 0 0 19 13.18l.01-.27V4.56l-.1-.06c-1.66-.94-3.81-1.45-6.45-1.5zm0 5h.08l.07.01a1.08 1.08 0 0 1 .22.06l.05.02a1.02 1.02 0 0 1 .2.13l.09.07 3 3a1 1 0 0 1-1.32 1.5l-.1-.08L13 11.4V15a1 1 0 0 1-2 .12V11.4l-1.3 1.3a1 1 0 0 1-1.49-1.32l.08-.1 3-3 .08-.07h.01l.02-.02.08-.05.04-.03.06-.03.05-.02a.99.99 0 0 1 .22-.06h.09l.04-.01H12z"/>
</svg>
